austria/municipalities/10610.svg

<?xml version="1.0" encoding="UTF-8" standalone="no"?>
<!-- Created with Inkscape (http://www.inkscape.org/) -->
<svg
   xmlns:dc="http://purl.org/dc/elements/1.1/"
   xmlns:cc="http://web.resource.org/cc/"
   xmlns:rdf="http://www.w3.org/1999/02/22-rdf-syntax-ns#"
   xmlns:svg="http://www.w3.org/2000/svg"
   xmlns="http://www.w3.org/2000/svg"
   xmlns:sodipodi="http://sodipodi.sourceforge.net/DTD/sodipodi-0.dtd"
   xmlns:inkscape="http://www.inkscape.org/namespaces/inkscape"
   width="156"
   height="168"
   id="svg2"
   sodipodi:version="0.32"
   inkscape:version="0.45.1"
   version="1.0"
   sodipodi:docname="rorbach.svg"
   inkscape:output_extension="org.inkscape.output.svg.inkscape">
  <defs
     id="defs4" />
  <sodipodi:namedview
     id="base"
     pagecolor="#ffffff"
     bordercolor="#666666"
     borderopacity="1.0"
     inkscape:pageopacity="0.0"
     inkscape:pageshadow="2"
     inkscape:zoom="28.904762"
     inkscape:cx="102.42959"
     inkscape:cy="37.030402"
     inkscape:document-units="px"
     inkscape:current-layer="layer1"
     width="156px"
     height="168px"
     showguides="true"
     inkscape:guide-bbox="true"
     inkscape:window-width="1152"
     inkscape:window-height="792"
     inkscape:window-x="0"
     inkscape:window-y="45">
    <sodipodi:guide
       orientation="vertical"
       position="53.036503"
       id="guide16032" />
  </sodipodi:namedview>
  <metadata
     id="metadata7">
    <rdf:RDF>
      <cc:Work
         rdf:about="">
        <dc:format>image/svg+xml</dc:format>
        <dc:type
           rdf:resource="http://purl.org/dc/dcmitype/StillImage" />
      </cc:Work>
    </rdf:RDF>
  </metadata>
  <g
     inkscape:label="pajzs"
     inkscape:groupmode="layer"
     id="layer1"
     style="display:inline"
     sodipodi:insensitive="true">
    <path
       style="fill:#ffffff;fill-opacity:1;fill-rule:evenodd;stroke:#000000;stroke-width:1px;stroke-linecap:butt;stroke-linejoin:miter;stroke-opacity:1"
       d="M 0.56310758,0.49955396 C 14.452316,0.5487909 148.07409,0.71920896 155.61309,0.53724236 C 155.62018,3.4015632 155.45246,75.641437 155.47379,91.675126 C 155.50237,113.15983 139.57765,166.00547 77.825752,166.7025 C 16.500254,167.39952 0.16269414,114.67046 0.61334796,87.917378 C 1.0644333,61.138679 0.62794284,5.3273084 0.56310758,0.49955396 z "
       id="path2221"
       sodipodi:nodetypes="ccszzc" />
    <path
       sodipodi:nodetypes="ccszzc"
       id="path2223"
       d="M 3.9544469,3.4644973 C 17.237823,3.5119778 145.23875,3.3303519 152.2413,3.5008412 C 152.24809,6.2629713 152.11054,75.251049 152.19713,91.090151 C 152.31038,111.80807 136.90533,163.06564 77.846976,163.7378 C 19.196431,164.40996 3.5714991,113.56211 4.0024959,87.763506 C 4.4339054,61.940193 4.0164541,8.1200115 3.9544469,3.4644973 z "
       style="fill:#000000;fill-opacity:1;fill-rule:evenodd;stroke:#000000;stroke-width:0.96034372px;stroke-linecap:butt;stroke-linejoin:miter;stroke-opacity:1" />
    <path
       style="fill:#ef3238;fill-opacity:1;fill-rule:evenodd;stroke:#000000;stroke-width:0.96034372px;stroke-linecap:butt;stroke-linejoin:miter;stroke-opacity:1"
       d="M 77.711393,3.4644973 C 90.994769,3.5119778 145.23875,3.3303519 152.2413,3.5008412 C 152.24809,6.2629713 152.11054,75.251049 152.19713,91.090151 C 152.31038,111.80807 136.90533,163.06564 77.846976,163.7378 C 77.911735,135.82434 78.331407,74.76707 77.711393,3.4644973 z "
       id="path3158"
       sodipodi:nodetypes="ccscc" />
    <path
       style="fill:#c3c63b;fill-opacity:1;fill-rule:evenodd;stroke:#000000;stroke-width:1px;stroke-linecap:butt;stroke-linejoin:miter;stroke-opacity:1;display:inline"
       d="M 76.22295,103.04303 C 72.653914,105.00105 73.546748,106.84423 72.206722,111.68359 C 71.923655,112.80772 67.720447,121.18646 64.75037,122.94305 C 64.549896,122.4502 64.217327,121.98793 63.614143,121.72279 C 62.721405,121.25833 59.77421,121.02527 59.275315,121.41781 C 58.569,121.85777 57.895308,122.99537 57.851282,123.37396 C 58.17054,123.63936 59.042881,123.70652 59.199584,123.7086 C 57.791832,123.70101 56.070906,123.53681 54.736965,124.2134 C 53.753273,124.83253 53.086113,125.67805 52.996692,126.85268 C 54.938037,126.63671 56.055967,126.5912 57.727827,126.60356 C 57.702615,126.99669 57.726512,127.20647 57.693353,127.47076 C 57.450361,127.76065 56.79267,128.3647 56.565701,128.68425 C 56.167267,129.24521 55.686947,130.3837 56.176928,131.06037 C 57.661138,130.77593 59.866771,130.04757 62.531157,129.2815 C 63.817868,129.03955 65.317287,128.30093 65.84584,127.92959 C 66.910886,127.18133 66.933627,126.30614 67.381126,125.62951 C 68.188906,125.60557 68.765856,125.64242 69.729616,125.58059 C 69.719238,124.08998 69.73261,123.04626 69.773618,121.48058 C 71.764593,119.39008 73.176189,117.40438 75.13474,115.2818 C 76.566224,113.76241 83.534173,108.75904 78.818662,104.53922 C 78.346141,104.25168 78.211294,104.13334 77.372182,103.61929"
       id="path14087"
       sodipodi:nodetypes="cccccccccccsccscccccz" />
    <path
       style="fill:#c3c63b;fill-opacity:1;fill-rule:evenodd;stroke:#000000;stroke-width:1px;stroke-linecap:butt;stroke-linejoin:miter;stroke-opacity:1;display:inline"
       d="M 95.674116,125.26019 C 94.28374,125.22339 92.413933,125.29221 91.054065,125.54057 C 88.939315,125.88726 89.327512,126.27787 88.808459,128.26072 C 89.778268,128.09284 93.262111,127.50524 94.224081,127.86491 C 91.495229,127.96419 90.544464,129.00962 89.172254,129.61648 C 88.172095,130.0588 87.594747,130.82306 87.289891,131.1946 C 86.580194,132.05954 86.625671,132.13091 86.735278,133.42555 C 88.499593,132.8084 92.205283,131.12574 93.765025,130.70469 C 92.409501,131.57003 91.724252,132.74201 91.164699,133.95793 C 90.770697,134.8141 91.483726,135.3258 91.687362,136.28931 C 93.424872,135.02617 97.037107,131.92972 98.551987,130.44857 C 98.843633,129.7722 99.008467,127.8375 98.903176,125.26907 C 99.651814,125.20975 100.34042,124.86902 101.08312,124.86375 C 99.028749,122.73575 99.257057,122.90407 98.318307,121.92416 C 96.330912,119.55595 94.166234,116.23439 93.964432,114.00964 C 93.75816,111.73559 94.210543,110.28421 92.786549,108.25368 C 89.680433,107.83564 87.630476,107.44727 84.532973,108.84017 C 85.404841,111.47097 87.707039,114.53254 90.181601,116.22433 C 93.471201,118.47333 94.559831,123.03315 95.674116,125.26019 z "
       id="path10081"
       sodipodi:nodetypes="ccccszccscccccsccsc" />
    <path
       style="fill:none;fill-rule:evenodd;stroke:#000000;stroke-width:1px;stroke-linecap:butt;stroke-linejoin:miter;stroke-opacity:1;display:inline"
       d="M 94.696584,130.37071 C 94.33705,130.50222 93.973526,130.60527 93.659709,130.80121"
       id="path11055"
       sodipodi:nodetypes="cc" />
    <path
       style="fill:none;fill-rule:evenodd;stroke:#000000;stroke-width:1px;stroke-linecap:butt;stroke-linejoin:miter;stroke-opacity:1;display:inline"
       d="M 64.388477,125.5666 C 63.993983,125.75718 62.898744,126.42859 62.116864,126.7863"
       id="path10079"
       sodipodi:nodetypes="cc" />
    <path
       style="fill:none;fill-rule:evenodd;stroke:#000000;stroke-width:1px;stroke-linecap:butt;stroke-linejoin:miter;stroke-opacity:1;display:inline"
       d="M 95.706588,125.40622 C 96.258676,126.09451 96.04985,126.88414 95.991929,127.45869"
       id="path6179"
       sodipodi:nodetypes="cc" />
    <path
       style="fill:none;fill-rule:evenodd;stroke:#000000;stroke-width:1px;stroke-linecap:butt;stroke-linejoin:miter;stroke-opacity:1;display:inline"
       d="M 64.680594,123.0072 C 64.239258,123.51965 62.477107,123.72469 62.115123,123.69955"
       id="path6261"
       sodipodi:nodetypes="cc" />
    <path
       style="fill:none;fill-rule:evenodd;stroke:#000000;stroke-width:1px;stroke-linecap:butt;stroke-linejoin:miter;stroke-opacity:1;display:inline"
       d="M 60.390643,123.69913 C 59.831228,123.7435 59.27613,123.73024 58.761013,123.66496"
       id="path6263"
       sodipodi:nodetypes="cc" />
  </g>
  <g
     inkscape:groupmode="layer"
     id="layer2"
     inkscape:label="test"
     style="display:inline"
     sodipodi:insensitive="true">
    <path
       style="fill:#ffffff;fill-opacity:1;fill-rule:evenodd;stroke:#000000;stroke-width:1px;stroke-linecap:butt;stroke-linejoin:miter;stroke-opacity:1"
       d="M 37.350178,27.83923 C 29.515373,20.617712 20.116313,28.640359 25.93829,34.430173 C 31.69028,40.150387 40.303661,47.207954 47.297094,58.090765 C 52.285715,65.853794 56.724829,70.752866 57.97726,79.923485 C 58.925446,86.86634 65.144988,97.611624 72.399361,102.3254 C 75.441323,104.30202 82.343954,108.91439 86.081954,110.03087 C 87.847423,110.55819 91.19111,111.05321 89.169349,108.30473 C 92.261772,109.80637 95.969426,111.55233 99.776169,111.2691 C 102.36382,111.07657 101.84001,111.23064 100.84628,109.42245 C 104.94105,109.2824 108.81019,109.43149 114.15164,109.34123 C 113.99676,108.89657 113.80498,108.58933 113.49631,108.13844 C 117.11191,108.32047 121.12436,109.45418 121.86965,106.61332 C 125.02045,106.95424 129.07158,107.87321 136.10129,108.87581 C 132.08206,105.43234 127.98557,103.01681 121.7182,98.90426 C 129.32027,101.67159 134.32242,104.47303 139.07202,106.47115 C 135.94273,102.39979 131.53545,97.438022 124.57694,94.445699 C 121.60611,90.906435 117.64524,87.132823 113.53174,82.836788 C 94.746404,64.22582 87.787728,61.624731 77.19944,61.166392 C 66.5133,60.708053 57.883132,51.959117 52.452674,46.758005 C 46.924362,41.45904 40.642348,31.423977 37.350178,27.83923 z "
       id="path4213"
       sodipodi:nodetypes="czsszscsccccccccczzc" />
  </g>
  <g
     inkscape:groupmode="layer"
     id="layer3"
     inkscape:label="toll"
     style="display:inline"
     sodipodi:insensitive="true">
    <path
       style="fill:#c2c536;fill-opacity:1;fill-rule:evenodd;stroke:#000000;stroke-width:1px;stroke-linecap:butt;stroke-linejoin:miter;stroke-opacity:1"
       d="M 27.692491,26.210528 C 24.683905,24.17414 20.885211,21.591146 18.496875,20.435062 C 17.244157,19.828678 15.882349,21.243427 16.635066,22.247469 C 17.942393,24.762714 22.63259,29.146388 26.68528,32.619652 C 23.496267,29.856802 21.943629,28.323728 20.891685,27.384768 C 20.592973,30.562712 23.823038,32.536458 26.193063,34.666448"
       id="path6197"
       sodipodi:nodetypes="cscccc" />
    <path
       style="fill:#000000;fill-opacity:1;fill-rule:evenodd;stroke:#000000;stroke-width:1px;stroke-linecap:butt;stroke-linejoin:miter;stroke-opacity:1"
       d="M 30.662882,28.947573 C 30.861802,29.276817 31.100074,29.495572 31.20821,29.645257 C 30.891211,30.005298 31.032949,30.647472 31.30972,30.962018 C 31.784586,31.405734 32.51316,31.378828 33.212521,30.92916 C 33.482906,31.085145 33.81976,31.269361 34.148558,31.483356 C 34.245999,31.394243 34.416727,31.253887 34.621888,31.072611 C 33.935663,29.946759 31.690795,28.909895 31.076065,28.510853 C 30.884157,28.72434 30.73159,28.855723 30.662882,28.947573 z "
       id="path12026"
       sodipodi:nodetypes="cccccccc" />
    <path
       style="fill:none;fill-rule:evenodd;stroke:#000000;stroke-width:1px;stroke-linecap:butt;stroke-linejoin:miter;stroke-opacity:1"
       d="M 117.57078,100.43228 C 119.93801,101.61103 124.46156,102.01678 127.0611,102.27123"
       id="path13992"
       sodipodi:nodetypes="cc" />
  </g>
  <path
     style="fill:none;fill-rule:evenodd;stroke:#000000;stroke-width:1px;stroke-linecap:butt;stroke-linejoin:miter;stroke-opacity:1"
     d="M 70.576606,67.324547 C 66.180192,72.775173 66.822099,80.722209 70.369029,86.352553 C 75.373896,94.323953 78.343943,95.236742 90.254568,102.76658 C 91.905129,103.84466 94.860355,102.80477 97.35132,103.48224 C 100.64578,104.10614 102.98377,104.31401 106.31772,104.31401"
     id="path12997"
     sodipodi:nodetypes="ccccc" />
  <path
     style="fill:none;fill-rule:evenodd;stroke:#000000;stroke-width:1px;stroke-linecap:butt;stroke-linejoin:miter;stroke-opacity:1"
     d="M 82.43375,87.049399 C 81.986256,88.070336 81.784374,88.893612 78.977808,88.594705 C 79.652265,90.958042 77.367097,92.076343 73.829262,90.991945"
     id="path12999"
     sodipodi:nodetypes="ccc" />
  <path
     style="fill:none;fill-rule:evenodd;stroke:#000000;stroke-width:1px;stroke-linecap:butt;stroke-linejoin:miter;stroke-opacity:1"
     d="M 80.194398,82.823724 C 79.541697,83.945738 79.026678,84.949714 77.87252,84.725908 C 77.808535,85.649316 76.678939,85.941002 74.365249,85.309368 C 74.719646,86.678531 73.541632,88.091516 71.268534,87.459638"
     id="path13001"
     sodipodi:nodetypes="cccc" />
  <path
     style="fill:none;fill-rule:evenodd;stroke:#000000;stroke-width:1px;stroke-linecap:butt;stroke-linejoin:miter;stroke-opacity:1"
     d="M 76.734761,79.50247 C 77.035817,82.11962 74.735179,81.847437 73.208167,81.467429 C 73.680476,82.675782 69.072029,83.538898 68.15486,81.093904"
     id="path13003"
     sodipodi:nodetypes="ccc" />
  <path
     style="fill:none;fill-rule:evenodd;stroke:#000000;stroke-width:1px;stroke-linecap:butt;stroke-linejoin:miter;stroke-opacity:1"
     d="M 89.120263,92.510708 C 94.831174,96.870982 100.64882,100.96373 106.86575,104.54185 C 108.77409,105.28062 110.22393,106.13828 112.36903,106.21087 C 112.98772,106.10776 113.79466,105.88253 113.33773,105.31137 C 112.07158,103.72868 110.37546,102.48097 108.56343,101.57496 C 106.67706,100.368 105.4937,99.083489 104.20428,97.354201"
     id="path13009"
     sodipodi:nodetypes="cccscc" />
  <path
     style="fill:none;fill-rule:evenodd;stroke:#000000;stroke-width:1px;stroke-linecap:butt;stroke-linejoin:miter;stroke-opacity:1"
     d="M 78.375471,94.969509 C 79.437283,94.688824 80.600813,94.104188 82.342604,93.3066 C 87.748579,96.537479 91.172938,99.653753 96.351327,103.21185"
     id="path13011"
     sodipodi:nodetypes="ccc" />
  <path
     style="fill:none;fill-rule:evenodd;stroke:#000000;stroke-width:1px;stroke-linecap:butt;stroke-linejoin:miter;stroke-opacity:1"
     d="M 82.806934,93.643573 C 84.441372,95.666789 85.838883,97.062951 87.321253,98.307549"
     id="path13013"
     sodipodi:nodetypes="cc" />
  <path
     style="fill:none;fill-rule:evenodd;stroke:#000000;stroke-width:1px;stroke-linecap:butt;stroke-linejoin:miter;stroke-opacity:1"
     d="M 112.63169,94.347575 C 117.70203,96.154204 122.90497,99.629453 125.54083,101.31354"
     id="path13015"
     sodipodi:nodetypes="cc" />
  <path
     style="fill:none;fill-rule:evenodd;stroke:#000000;stroke-width:1px;stroke-linecap:butt;stroke-linejoin:miter;stroke-opacity:1"
     d="M 113.02881,104.70195 C 117.61692,104.11472 120.08512,105.59658 121.78764,106.65817"
     id="path13017"
     sodipodi:nodetypes="cc" />
  <path
     style="fill:none;fill-rule:evenodd;stroke:#000000;stroke-width:1px;stroke-linecap:butt;stroke-linejoin:miter;stroke-opacity:1"
     d="M 90.553046,85.880075 C 90.641026,89.149641 89.409796,89.473063 86.511566,88.461692 C 86.33187,90.236396 85.110246,90.257088 83.196907,89.567558"
     id="path13021"
     sodipodi:nodetypes="ccc" />
  <path
     style="fill:none;fill-rule:evenodd;stroke:#000000;stroke-width:1px;stroke-linecap:butt;stroke-linejoin:miter;stroke-opacity:1"
     d="M 112.40625,106.18188 C 112.9951,106.59353 114.10017,107.66911 114.48839,108.26054"
     id="path13994"
     sodipodi:nodetypes="cc" />
  <path
     style="fill:none;fill-rule:evenodd;stroke:#000000;stroke-width:1px;stroke-linecap:butt;stroke-linejoin:miter;stroke-opacity:1"
     d="M 99.125421,108.16269 C 99.65299,108.42256 100.37874,109.12389 100.83785,109.48371"
     id="path13996"
     sodipodi:nodetypes="cc" />
  <path
     style="fill:none;fill-rule:evenodd;stroke:#000000;stroke-width:1px;stroke-linecap:butt;stroke-linejoin:miter;stroke-opacity:1"
     d="M 89.051071,92.233937 C 89.579906,93.907994 88.046798,94.008013 86.629325,93.479407 C 86.416111,94.751256 85.777253,94.969165 83.308073,94.032949"
     id="path18942"
     sodipodi:nodetypes="ccc" />
  <path
     style="fill:none;fill-rule:evenodd;stroke:#000000;stroke-width:1px;stroke-linecap:butt;stroke-linejoin:miter;stroke-opacity:1"
     d="M 91.749588,103.30478 C 90.656662,101.77049 89.329692,100.65186 88.28995,99.429984"
     id="path18944"
     sodipodi:nodetypes="cc" />
</svg>

<svg xmlns="http://www.w3.org/2000/svg" width="156" height="168" version="1.0"><g style="display:inline"><path style="fill:#fff;fill-opacity:1;fill-rule:evenodd;stroke:#000;stroke-width:1px;stroke-linecap:butt;stroke-linejoin:miter;stroke-opacity:1" d="M.563.5c13.89.049 147.511.22 155.05.037.007 2.865-.16 75.104-.14 91.138.03 21.485-15.895 74.33-77.647 75.027C16.5 167.4.163 114.67.613 87.917 1.064 61.14.628 5.327.563.5z"/><path d="M3.954 3.464c13.284.048 141.285-.134 148.287.037.007 2.762-.13 71.75-.044 87.59.113 20.717-15.292 71.975-74.35 72.647-58.65.672-74.276-50.176-73.845-75.974.432-25.824.014-79.644-.048-84.3z" style="fill:#000;fill-opacity:1;fill-rule:evenodd;stroke:#000;stroke-width:.96034372px;stroke-linecap:butt;stroke-linejoin:miter;stroke-opacity:1"/><path style="fill:#ef3238;fill-opacity:1;fill-rule:evenodd;stroke:#000;stroke-width:.96034372px;stroke-linecap:butt;stroke-linejoin:miter;stroke-opacity:1" d="M77.711 3.464c13.284.048 67.528-.134 74.53.037.007 2.762-.13 71.75-.044 87.59.113 20.717-15.292 71.975-74.35 72.647.065-27.914.484-88.97-.136-160.274z"/><path style="fill:#c3c63b;fill-opacity:1;fill-rule:evenodd;stroke:#000;stroke-width:1px;stroke-linecap:butt;stroke-linejoin:miter;stroke-opacity:1;display:inline" d="M76.223 103.043c-3.57 1.958-2.676 3.801-4.016 8.64-.283 1.125-4.487 9.503-7.457 11.26-.2-.493-.533-.955-1.136-1.22-.893-.465-3.84-.698-4.339-.305-.706.44-1.38 1.577-1.424 1.956.32.265 1.192.333 1.349.335-1.408-.008-3.13-.172-4.463.504-.984.62-1.65 1.465-1.74 2.64 1.941-.216 3.059-.262 4.73-.25-.024.394 0 .603-.034.868-.243.29-.9.894-1.127 1.213-.399.561-.88 1.7-.39 2.376 1.485-.284 3.69-1.012 6.355-1.779 1.287-.241 2.786-.98 3.315-1.351 1.065-.749 1.088-1.624 1.535-2.3.808-.024 1.385.012 2.349-.05-.01-1.49.003-2.534.044-4.1 1.99-2.09 3.402-4.076 5.36-6.198 1.432-1.52 8.4-6.523 3.685-10.743-.473-.287-.608-.406-1.447-.92M95.674 125.26c-1.39-.037-3.26.032-4.62.28-2.115.347-1.726.738-2.246 2.72.97-.167 4.454-.755 5.416-.395-2.729.1-3.68 1.145-5.052 1.751-1 .443-1.577 1.207-1.882 1.579-.71.865-.664.936-.555 2.23 1.765-.617 5.47-2.3 7.03-2.72-1.355.865-2.04 2.037-2.6 3.253-.394.856.319 1.368.522 2.331 1.738-1.263 5.35-4.36 6.865-5.84.292-.677.456-2.612.351-5.18.749-.06 1.437-.4 2.18-.405-2.054-2.128-1.826-1.96-2.765-2.94-1.987-2.368-4.152-5.69-4.354-7.914-.206-2.274.247-3.726-1.177-5.756-3.107-.418-5.157-.807-8.254.586.872 2.631 3.174 5.693 5.649 7.384 3.29 2.25 4.378 6.81 5.492 9.036z"/><path style="fill:none;fill-rule:evenodd;stroke:#000;stroke-width:1px;stroke-linecap:butt;stroke-linejoin:miter;stroke-opacity:1;display:inline" d="M94.697 130.37c-.36.132-.723.235-1.037.431M64.388 125.567c-.394.19-1.49.862-2.271 1.22M95.707 125.406c.552.689.343 1.478.285 2.053M64.68 123.007c-.44.513-2.203.718-2.565.693M60.39 123.7a8.028 8.028 0 0 1-1.629-.035"/></g><g style="display:inline"><path style="fill:#fff;fill-opacity:1;fill-rule:evenodd;stroke:#000;stroke-width:1px;stroke-linecap:butt;stroke-linejoin:miter;stroke-opacity:1" d="M37.35 27.84c-7.835-7.222-17.234.8-11.412 6.59 5.752 5.72 14.366 12.778 21.36 23.66 4.988 7.764 9.427 12.663 10.68 21.833.947 6.943 7.167 17.689 14.421 22.402 3.042 1.977 9.945 6.59 13.683 7.706 1.765.527 5.11 1.022 3.087-1.726 3.093 1.501 6.8 3.247 10.607 2.964 2.588-.192 2.064-.038 1.07-1.847 4.095-.14 7.964.01 13.306-.08-.155-.445-.347-.753-.656-1.204 3.616.182 7.628 1.316 8.374-1.525 3.15.341 7.202 1.26 14.231 2.263-4.019-3.444-8.115-5.86-14.383-9.972 7.602 2.768 12.604 5.569 17.354 7.567-3.13-4.071-7.537-9.033-14.495-12.025-2.97-3.54-6.932-7.313-11.045-11.61-18.786-18.61-25.744-21.211-36.333-21.67-10.686-.458-19.316-9.207-24.746-14.408-5.529-5.299-11.81-15.334-15.103-18.919z"/></g><g style="display:inline"><path style="fill:#c2c536;fill-opacity:1;fill-rule:evenodd;stroke:#000;stroke-width:1px;stroke-linecap:butt;stroke-linejoin:miter;stroke-opacity:1" d="M27.692 26.21c-3.008-2.036-6.807-4.619-9.195-5.775-1.253-.606-2.615.808-1.862 1.812 1.307 2.516 5.998 6.9 10.05 10.373-3.189-2.763-4.741-4.296-5.793-5.235-.299 3.178 2.931 5.151 5.301 7.281"/><path style="fill:#000;fill-opacity:1;fill-rule:evenodd;stroke:#000;stroke-width:1px;stroke-linecap:butt;stroke-linejoin:miter;stroke-opacity:1" d="M30.663 28.948c.199.329.437.548.545.697-.317.36-.175 1.002.102 1.317.475.444 1.203.417 1.903-.033.27.156.607.34.936.554.097-.089.268-.23.473-.41-.686-1.126-2.931-2.163-3.546-2.562-.192.213-.344.345-.413.437z"/><path style="fill:none;fill-rule:evenodd;stroke:#000;stroke-width:1px;stroke-linecap:butt;stroke-linejoin:miter;stroke-opacity:1" d="M117.57 100.432c2.368 1.179 6.892 1.585 9.491 1.84"/></g><path style="fill:none;fill-rule:evenodd;stroke:#000;stroke-width:1px;stroke-linecap:butt;stroke-linejoin:miter;stroke-opacity:1" d="M70.577 67.325c-4.397 5.45-3.755 13.397-.208 19.028 5.005 7.971 7.975 8.884 19.886 16.414 1.65 1.078 4.605.038 7.096.715 3.295.624 5.633.832 8.967.832"/><path style="fill:none;fill-rule:evenodd;stroke:#000;stroke-width:1px;stroke-linecap:butt;stroke-linejoin:miter;stroke-opacity:1" d="M82.434 87.05c-.448 1.02-.65 1.844-3.456 1.545.674 2.363-1.61 3.481-5.149 2.397M80.194 82.824c-.652 1.122-1.167 2.126-2.321 1.902-.064.923-1.194 1.215-3.508.583.355 1.37-.823 2.783-3.096 2.15M76.735 79.502c.3 2.618-2 2.345-3.527 1.965.472 1.209-4.136 2.072-5.053-.373M89.12 92.51c5.711 4.361 11.529 8.454 17.746 12.032 1.908.739 3.358 1.596 5.503 1.669.619-.103 1.426-.328.969-.9-1.266-1.582-2.963-2.83-4.775-3.736-1.886-1.207-3.07-2.492-4.359-4.22M78.375 94.97c1.062-.281 2.226-.866 3.968-1.663 5.406 3.23 8.83 6.347 14.008 9.905"/><path style="fill:none;fill-rule:evenodd;stroke:#000;stroke-width:1px;stroke-linecap:butt;stroke-linejoin:miter;stroke-opacity:1" d="M82.807 93.644c1.634 2.023 3.032 3.419 4.514 4.664M112.632 94.348c5.07 1.806 10.273 5.281 12.909 6.966M113.029 104.702c4.588-.587 7.056.895 8.759 1.956M90.553 85.88c.088 3.27-1.143 3.593-4.041 2.582-.18 1.774-1.402 1.795-3.315 1.106M112.406 106.182c.59.412 1.694 1.487 2.082 2.079M99.125 108.163c.528.26 1.254.96 1.713 1.32M89.051 92.234c.529 1.674-1.004 1.774-2.422 1.245-.213 1.272-.852 1.49-3.32.554M91.75 103.305c-1.093-1.535-2.42-2.653-3.46-3.875"/></svg>
